docs/img/svgicons/media/email.svg

<svg width="430" height="387" viewBox="0 0 430 387" fill="none" xmlns="http://www.w3.org/2000/svg">
<g clip-path="url(#clip0_455_24)">
<path d="M388.691 0H43.1878C31.7537 0.0649051 20.8064 4.63566 12.7209 12.7209C4.63566 20.8064 0.0649051 31.7537 0 43.1878V339.333C0.0649051 350.767 4.63566 361.714 12.7209 369.799C20.8064 377.886 31.7537 382.457 43.1878 382.521H388.691C400.124 382.457 411.072 377.886 419.156 369.799C427.244 361.714 431.814 350.767 431.878 339.333V43.1878C431.814 31.7537 427.244 20.8064 419.156 12.7209C411.072 4.63566 400.124 0.0649051 388.691 0ZM43.1878 37.0181H388.691C390.327 37.0181 391.896 37.6682 393.054 38.8251C394.211 39.9823 394.86 41.5516 394.86 43.1878V81.1931L215.939 170.53L37.0181 81.1931V43.1878C37.0181 41.5516 37.6682 39.9823 38.8251 38.8251C39.9823 37.6682 41.5516 37.0181 43.1878 37.0181ZM388.691 345.503H43.1878C41.5516 345.503 39.9823 344.854 38.8251 343.696C37.6682 342.539 37.0181 340.969 37.0181 339.333V122.407L207.548 207.795C210.154 209.098 213.027 209.777 215.939 209.777C218.851 209.777 221.724 209.098 224.33 207.795L394.86 122.407V339.333C394.86 340.969 394.211 342.539 393.054 343.696C391.896 344.854 390.327 345.503 388.691 345.503Z" fill="#731C00"/>
</g>
<defs>
<clipPath id="clip0_455_24">
<rect width="430" height="387" fill="white"/>
</clipPath>
</defs>
</svg>

<svg width="430" height="387" fill="none" xmlns="http://www.w3.org/2000/svg"><g clip-path="url(#clip0_455_24)"><path d="M388.691 0H43.188A43.436 43.436 0 000 43.188v296.145a43.433 43.433 0 0043.188 43.188H388.69a43.42 43.42 0 0030.465-12.722 43.418 43.418 0 0012.722-30.466V43.188a43.421 43.421 0 00-12.722-30.467A43.43 43.43 0 00388.691 0zM43.188 37.018H388.69a6.17 6.17 0 016.169 6.17v38.005l-178.92 89.337-178.92-89.337V43.188a6.17 6.17 0 016.169-6.17zM388.69 345.503H43.188a6.166 6.166 0 01-6.17-6.17V122.407l170.53 85.388a18.764 18.764 0 0016.782 0l170.53-85.388v216.926a6.17 6.17 0 01-6.169 6.17z" fill="#731C00"/></g><defs><clipPath id="clip0_455_24"><path fill="#fff" d="M0 0h430v387H0z"/></clipPath></defs></svg>
